www/images/trash.svg

<svg fill="none" height="75" viewBox="0 0 75 75" width="75" xmlns="http://www.w3.org/2000/svg"><path clip-rule="evenodd" d="m54.8656 28.5198h-34.1864c-2.7869 0-3.1585 1.738-3.1977 2.4189v25.2157c0 6.2556 5.5337 11.3456 12.3342 11.3456h15.5984c6.8006 0 12.334-5.0902 12.334-11.3456v-25.1055c-.3105-2.0633-1.9806-2.4664-2.8825-2.5291zm-5.1708 30.0819c0 .96-.9017 1.7387-2.0132 1.7387s-2.0134-.7789-2.0134-1.7387v-21.9793c0-.96.9021-1.7385 2.0134-1.7385 1.1117 0 2.0132.7787 2.0132 1.7385zm-9.664 0c0 .96-.9021 1.7387-2.0134 1.7387-1.1117 0-2.0132-.7789-2.0132-1.7387v-21.9793c0-.96.9017-1.7385 2.0132-1.7385s2.0134.7787 2.0134 1.7385zm-9.664 0c0 .96-.9017 1.7387-2.0133 1.7387-1.1115 0-2.0133-.7789-2.0133-1.7387v-21.9793c0-.96.902-1.7385 2.0133-1.7385 1.1118 0 2.0133.7787 2.0133 1.7385zm28.6424-40.6841s-.3898-3.8347-3.8771-3.852l-10.502-.0481-.0139-2.0767c.0405-2.92201-2.4367-3.28915-3.332-3.32684l-.3121-.00058c-.0012.00022-.0074-.00005-.0074-.00005s-1.5008-.00637-3.3999-.01485l-3.075-.01421c-.708-.00295-1.396-.0058-2.0178-.0087-3.2467-.01318-3.32 3.21103-3.3222 3.32243l.0138 2.0498-9.3106-.0426c.0003.0012-4.8647.3659-4.8354 4.6601.0294 4.2941 3.4832 4.8161 3.4832 4.8161l36.8048.1651c.0048-.0009 3.7394-.4482 3.7171-3.742-.0229-3.2965-.0135-1.8869-.0135-1.8869z" fill="#fff" fill-rule="evenodd"/></svg>

<svg width="75" height="75" viewBox="0 0 75 75" fill="none" xmlns="http://www.w3.org/2000/svg">
<path fill-rule="evenodd" clip-rule="evenodd" d="M54.8656 28.5198H20.6792C17.8923 28.5198 17.5207 30.2578 17.4815 30.9387V56.1544C17.4815 62.41 23.0152 67.5 29.8157 67.5H45.4141C52.2147 67.5 57.7481 62.4098 57.7481 56.1544V31.0489C57.4376 28.9856 55.7675 28.5825 54.8656 28.5198ZM49.6948 58.6017C49.6948 59.5617 48.7931 60.3404 47.6816 60.3404C46.5701 60.3404 45.6682 59.5615 45.6682 58.6017V36.6224C45.6682 35.6624 46.5703 34.8839 47.6816 34.8839C48.7933 34.8839 49.6948 35.6626 49.6948 36.6224V58.6017ZM40.0308 58.6017C40.0308 59.5617 39.1287 60.3404 38.0174 60.3404C36.9057 60.3404 36.0042 59.5615 36.0042 58.6017V36.6224C36.0042 35.6624 36.9059 34.8839 38.0174 34.8839C39.1289 34.8839 40.0308 35.6626 40.0308 36.6224V58.6017ZM30.3668 58.6017C30.3668 59.5617 29.4651 60.3404 28.3535 60.3404C27.242 60.3404 26.3402 59.5615 26.3402 58.6017V36.6224C26.3402 35.6624 27.2422 34.8839 28.3535 34.8839C29.4653 34.8839 30.3668 35.6626 30.3668 36.6224V58.6017ZM59.0092 17.9176C59.0092 17.9176 58.6194 14.0829 55.1321 14.0656L44.6301 14.0175L44.6162 11.9408C44.6567 9.01879 42.1795 8.65165 41.2842 8.61396L40.9721 8.61338C40.9709 8.6136 40.9647 8.61333 40.9647 8.61333C40.9647 8.61333 39.4639 8.60696 37.5648 8.59848L34.4898 8.58427C33.7818 8.58132 33.0938 8.57847 32.472 8.57557C29.2253 8.56239 29.152 11.7866 29.1498 11.898L29.1636 13.9478L19.853 13.9052C19.8533 13.9064 14.9883 14.2711 15.0176 18.5653C15.047 22.8594 18.5008 23.3814 18.5008 23.3814L55.3056 23.5465C55.3104 23.5456 59.045 23.0983 59.0227 19.8045C58.9998 16.508 59.0092 17.9176 59.0092 17.9176Z" fill="white"/>
</svg>
